X:9
T:La Visitte
N:page 13 on manuscript
M:2/4
L:1/8
K:C
c>dce | fa a2 | gc (f/e/d/c/) | BddG | c>dce | fa a2 | gc (e/d/c/d/) | ec c2 H|]
efea | cA A2 | dedg | BG G2 | g^fgd | eg d2 | gB {B}AG/A/ | BG G2 +D.C.+ |]

